X:1
T:Aziraphale's gavotte
T:Aziraphale's gavotte
T: Composed by: Arthur Sullivan Based on: arrangement from Good Omens (ep 4) Transcripted by: enneri303
T:(Good Omens version of the gavotte from "The Gondoliers") 
C:David Arnold (?)
%%score { 1 | 2 }
L:1/8
Q:1/4=156
M:4/4
K:D
V:1 treble nm="Piano" snm="Pno."
V:2 bass 
V:1
"^\n\n"!mf! A2 B2 A2 E2 | A2 ^A2 =A2 =F2 | =c4!>(! dc^A=A!>)! | G=FED =C4 | dcBd .c2 c2 | cBAc B4 | %6
 BAFB!<(! GFEF!<)! | GABc .d2 A2 | [dd'][cc'][Bb][dd'] .[cc']2 [cc']2 | [cc'][Bb][Aa][cc'] [Bb]4 | %10
 [Bb][Aa][Ff][Bb] [Gg][Ff][Ee][Ff] | [Gg][Aa][Bb][cc'] .[dd']2 .[dd']2 | .[Ada]2 dA .[Bd]2 EG | %13
 .[Ac]2 .[Aa]2!<(! FGEF!<)! |!mf! .D2 .A2 .A2 .A2 | .A2 .C2 GFED | .C2 .B2 .B2 .B2 | A4 FGEF | %18
 .D2 .d2 .d2 .d2 | .d2 .c2{D} EDEF | .E2 .B2!<(! .E2 .B2!<)! | A4!ff! [Aa][^G^g][Ff][Aa] | %22
 .[^G^g]2 .[Gg]2 [Gg][Ff][Ee][Gg] | .[Ff]2 .[Ff]2 [Ff][Ee][Cc][Ff] | %24
 [Dd][Cc][B,B][Cc] [Dd][Ee][Ff][^G^g] | [Aa]4 [Aa][^G^g][Ff][Aa] | %26
 .[^G^g]2 .[Gg]2 [Gg][Ff][Ee][Gg] | .[Ff]2 .[Ff]2 [Ff][Ee][Cc][Ff] | %28
 [Dd][Cc][B,B][Cc] [Dd][Ee][Ff][^G^g] |!mf! .A2 E2 z4 |] %30
V:2
 z4 E,A,A,,A, | E,A,A,,A, F,DD,D | .A,,-.[A,,-=F,=C] [A,,F,C]2 ^A,,2 A,,2 | =C,2 C,2 [=F,A,]4 | %4
 D,A,A,,A, E,A,A,,A, | E,A,A,,A, D,A,A,,A, | D,A,A,,A, E,A,A,,A, | E,A,A,,A, D,A,A,,A, | %8
!ff! D,A,A,,A, E,A,A,,A, | E,A,A,,A, D,A,A,,A, | D,A,A,,A, E,A,A,,A, | E,A,A,,A, [D,F,D]4 | %12
!mp! [F,F]4 [G,G]4 | A,4 z4 | D,A,A,,A, D,A,A,,A, | E,A,A,,A, E,A,A,,A, | E,A,A,,A, E,A,A,,A, | %17
 F,DD,D F,DD,D | F,DD,D F,DD,D | E,A,A,,A, E,A,A,,A, | E,^G,B,,G, E,G,B,,G, | A,,A,E,A, A,,A,E,A, | %22
 E,^G,B,,G, E,G,B,,G, | A,,A,E,A, A,,A,E,A, | B,,^G,D,G, B,,G,D,G, | A,,A,E,A, A,,A,E,A, | %26
 E,^G,B,,G, E,G,B,,G, | A,,A,E,A, A,,A,E,A, | B,,^G,D,G, B,,G,D,G, | .A,2 E,2 .A,2 z2 |] %30

